Yaru++/apps/scalable/exfalso.svg

<svg height="256" width="256" xmlns="http://www.w3.org/2000/svg" xmlns:xlink="http://www.w3.org/1999/xlink">
  <filter id="filter866" color-interpolation-filters="sRGB" height="1.024" width="1.024" x="-.01" y="-.01">
    <feGaussianBlur stdDeviation=".426"/>
  </filter>
  <filter id="filter884" color-interpolation-filters="sRGB" height="1.096" width="1.096" x="-.05" y="-.05">
    <feGaussianBlur stdDeviation="1.703"/>
  </filter>
  <g fill-rule="evenodd" transform="matrix(2.6776155 0 0 2.6776155 15.191144 67.47076)">
    <g fill="#020000">
      <path d="m-1.2624541-20.869442c10.4580424 11.0151612 5.9198846 18.0617359 11.6579761 31.035394 5.324944 12.039565 16.91632 3.02788 24.851937 11.539818-7.93558 8.511869-19.566435-.539151-24.891343 11.500414-5.7380592 12.973687-1.1605602 20.059605-11.6185701 31.074763 11.0151599-10.458042 18.1010761-5.88051 31.0747651-11.618567 12.0396-5.324943 3.027884-16.916322 11.539855-24.851938 8.451329 7.936515-.524521 19.572874 11.500415 24.89131 12.976543 5.739367 20.017784 1.118846 31.035354 11.579195-10.460314-11.01757-5.839865-18.058846-11.579193-31.035356-5.31844-12.024936-16.915426-3.088455-24.851937-11.539821 7.936511-8.451396 19.533497.485083 24.851937-11.539818 5.739362-12.9765478 1.118844-20.0178258 11.579193-31.035394-11.017605 10.460314-18.058844 5.839863-31.035354 11.5791942-12.024936 5.3184378-3.049086 16.9548362-11.500415 24.8913478-8.511937-7.9356525.499745-19.5270301-11.539855-24.8519762-12.973689-5.7380548-20.0596052-1.1605208-31.0747651-11.6185658z" filter="url(#filter866)" opacity=".1"/>
      <path d="m-1.2624541-20.869442c10.4580424 11.0151612 5.9198846 18.0617359 11.6579761 31.035394 5.324944 12.039565 16.91632 3.02788 24.851937 11.539818-7.93558 8.511869-19.566435-.539151-24.891343 11.500414-5.7380592 12.973687-1.1605602 20.059605-11.6185701 31.074763 11.0151599-10.458042 18.1010761-5.88051 31.0747651-11.618567 12.0396-5.324943 3.027884-16.916322 11.539855-24.851938 8.451329 7.936515-.524521 19.572874 11.500415 24.89131 12.976543 5.739367 20.017784 1.118846 31.035354 11.579195-10.460314-11.01757-5.839865-18.058846-11.579193-31.035356-5.31844-12.024936-16.915426-3.088455-24.851937-11.539821 7.936511-8.451396 19.533497.485083 24.851937-11.539818 5.739362-12.9765478 1.118844-20.0178258 11.579193-31.035394-11.017605 10.460314-18.058844 5.839863-31.035354 11.5791942-12.024936 5.3184378-3.049086 16.9548362-11.500415 24.8913478-8.511937-7.9356525.499745-19.5270301-11.539855-24.8519762-12.973689-5.7380548-20.0596052-1.1605208-31.0747651-11.6185658z" filter="url(#filter884)" opacity=".1"/>
      <path d="m-1.2624541-20.869442c10.4580424 11.0151612 5.9198846 18.0617359 11.6579761 31.035394 5.324944 12.039565 16.91632 3.02788 24.851937 11.539818-7.93558 8.511869-19.566435-.539151-24.891343 11.500414-5.7380592 12.973687-1.1605602 20.059605-11.6185701 31.074763 11.0151599-10.458042 18.1010761-5.88051 31.0747651-11.618567 12.0396-5.324943 3.027884-16.916322 11.539855-24.851938 8.451329 7.936515-.524521 19.572874 11.500415 24.89131 12.976543 5.739367 20.017784 1.118846 31.035354 11.579195-10.460314-11.01757-5.839865-18.058846-11.579193-31.035356-5.31844-12.024936-16.915426-3.088455-24.851937-11.539821 7.936511-8.451396 19.533497.485083 24.851937-11.539818 5.739362-12.9765478 1.118844-20.0178258 11.579193-31.035394-11.017605 10.460314-18.058844 5.839863-31.035354 11.5791942-12.024936 5.3184378-3.049086 16.9548362-11.500415 24.8913478-8.511937-7.9356525.499745-19.5270301-11.539855-24.8519762-12.973689-5.7380548-20.0596052-1.1605208-31.0747651-11.6185658z" opacity=".1"/>
    </g>
    <path d="m-.51552091-20.122508c10.27456801 10.8219117 5.81602701 17.7448627 11.45344991 30.490913 5.231524 11.828344 16.619543 2.974759 24.415938 11.337365-7.796359 8.362538-19.223164-.529692-24.454653 11.298652-5.6373909 12.746079-1.1401989 19.707682-11.41473491 30.529592 10.82191191-10.274568 17.78351291-5.777343 30.52959391-11.414732 11.828379-5.231523 2.974763-16.619545 11.337401-24.41594 8.30306 7.797278-.515319 19.229491 11.298653 24.454621 12.748885 5.638676 19.666595 1.099217 30.490874 11.376051-10.276799-10.824279-5.737411-17.742024-11.376049-30.490876-5.225134-11.813972-16.618664-3.034272-24.415938-11.337368 7.797274-8.303126 19.190804.476573 24.415938-11.337365 5.638672-12.7488893 1.099215-19.6666363 11.376049-30.490913-10.824313 10.2767997-17.742022 5.737409-30.490874 11.3760497-11.813972 5.225132-2.995593 16.657383-11.298653 24.4546573-8.362605-7.7964303.490978-19.1844503-11.337401-24.4159763-12.746081-5.6373867-19.707682-1.140161-30.52959391-11.4147307z" fill="#3d3846"/>
    <path d="m-.51552039-20.122508c.94572579.99611 1.76460739 1.95893 2.48004989 2.896555 9.4684285 7.4718586 16.3040625 4.070413 28.0493865 9.2651811 11.828378 5.2315264 2.974878 16.6196799 11.337483 24.4161109 8.303059-7.7972747-.515149-19.229638 11.298825-24.4547703 11.749223-5.1965187 18.548205-1.7580941 28.014372-9.2294397.713856-.936818 1.531436-1.89833 2.476405-2.893637-10.824313 10.2768-17.741926 5.737502-30.490777 11.3761435-11.813974 5.2251319-2.995766 16.6574952-11.298825 24.4547705-8.362605-7.7964312.490895-19.1845847-11.337483-24.4161111-12.74608-5.6373869-19.707528-1.1402328-30.52943639-11.4148029zm35.50704339 42.201728c-7.784116 7.720126-18.941218-.721052-24.092242 10.925359-5.6373923 12.746079-1.1402678 19.707527-11.41480139 30.529435.84867676-.805754 1.67128549-1.511359 2.47713309-2.147433 7.0541832-9.256202 3.8186514-16.061029 8.9376683-27.635069 5.231487-11.828345 16.658412-2.936288 24.45477-11.298826-.11992-.128625-.240945-.252848-.362528-.373466zm12.721939 0c-.122325.120428-.243347.245001-.363984.373466 7.797273 8.303097 19.190245-.476487 24.415379 11.337483 5.120158 11.57658 1.850204 18.345771 8.899739 27.597141.805383.635666 1.627681 1.340905 2.476405 2.146704-10.276799-10.82428-5.737505-17.741923-11.376144-30.490778-5.14429-11.631185-16.267502-3.300937-24.051395-10.964016z" fill="#fff" opacity=".3"/>
    <path d="m-.51617696-20.12227c10.27457086 10.8219122 5.81604426 17.7447274 11.45346296 30.490778 5.151143 11.646594 16.271306 3.242045 24.054313 10.964016.121597-.120596.241883-.244841.361796-.373466-7.796389-8.362606-19.184577.490862-24.416109-11.3374837-5.1179976-11.5716519-1.9160517-18.3445908-8.9704925-27.5920343-.8077225-.637239-1.63222097-1.344089-2.48297046-2.15181zm83.65652296 0c-.849088.806138-1.671424 1.511566-2.477133 2.147433-7.048735 9.2509492-3.778246 16.0201427-8.898279 27.5964113-5.225142 11.8139367-16.618843 3.0343577-24.416113 11.3374837.12088.128719.242145.252818.364717.373466 7.783873-7.662498 18.907177.666959 24.051396-10.964016 5.63867-12.7488897 1.09857-19.666501 11.375412-30.490778zm-41.788872 47.078679c-8.362642 7.796392.490896 19.184584-11.337483 24.416108-11.746246 5.195179-18.582709 1.792487-28.0523028 9.266641-.714479.937569-1.53283029 1.899712-2.47786516 2.895094 10.82191996-10.274567 17.78408796-5.777412 30.53016796-11.414801 11.828379-5.231525 2.974841-16.619717 11.337483-24.416109 8.303059 7.797277-.515877 19.229636 11.298094 24.454766 12.748891 5.638678 19.666498 1.09931 30.490778 11.376144-.944975-.995314-1.762546-1.95754-2.476405-2.894366-9.465937-7.470957-16.265278-4.032229-28.014373-9.228711-11.813971-5.225131-2.995035-16.657489-11.298094-24.454766z" opacity=".3"/>
  </g>
</svg>

<svg xmlns="http://www.w3.org/2000/svg" xmlns:xlink="http://www.w3.org/1999/xlink" width="256" height="256" version="1.0">
 <defs>
  <linearGradient id="linearGradient3614" x1="7.984" x2="16.909" y1="6.43" y2="53.273" gradientTransform="translate(90.44897,-28.04676)" gradientUnits="userSpaceOnUse" xlink:href="#linearGradient2854"/>
  <linearGradient id="linearGradient2854">
   <stop style="stop-color:#0a0a0a;stop-opacity:1.0000000" id="stop2856" offset="0"/>
   <stop style="stop-color:#224354;stop-opacity:1.0000000" id="stop2858" offset="1"/>
  </linearGradient>
  <linearGradient id="linearGradient5100" x1="7.984" x2="16.909" y1="6.43" y2="53.273" gradientTransform="translate(90.44897,-28.04676)" gradientUnits="userSpaceOnUse" xlink:href="#linearGradient2854"/>
  <linearGradient id="linearGradient3616">
   <stop style="stop-color:#000000" id="stop3618" offset="0"/>
   <stop style="stop-color:#ffffff;stop-opacity:0.99170125" id="stop3620" offset="1"/>
  </linearGradient>
  <linearGradient id="linearGradient3622" x1="39.5" x2="-3" y1="73" y2="12.85" gradientTransform="matrix(0.750204,0,0,0.750204,0.7118894,15.76301)" gradientUnits="userSpaceOnUse" xlink:href="#linearGradient2854"/>
  <linearGradient id="linearGradient4356" x1="39.5" x2="-3" y1="73" y2="12.85" gradientTransform="matrix(0.750204,0,0,0.750204,0.7118894,15.76301)" gradientUnits="userSpaceOnUse" xlink:href="#linearGradient2854"/>
  <linearGradient id="linearGradient2173" x1="39.5" x2="-3" y1="73" y2="12.85" gradientTransform="matrix(1.4536755,0,0,1.4536755,-5.2048769,-24.811864)" gradientUnits="userSpaceOnUse" xlink:href="#linearGradient2854"/>
  <filter style="color-interpolation-filters:sRGB" id="filter866" width="1.024" height="1.024" x="-.01" y="-.01">
   <feGaussianBlur id="feGaussianBlur868" stdDeviation=".426"/>
  </filter>
  <filter style="color-interpolation-filters:sRGB" id="filter884" width="1.096" height="1.096" x="-.05" y="-.05">
   <feGaussianBlur id="feGaussianBlur886" stdDeviation="1.703"/>
  </filter>
 </defs>
 <g id="layer1" transform="translate(0,208)">
  <g transform="matrix(2.6776155,0,0,2.6776155,15.191144,-140.52924)">
   <path style="opacity:0.1;fill:#020000;fill-rule:evenodd;filter:url(#filter866)" d="M -1.2624541,-20.869442 C 9.1955883,-9.8542808 4.6574305,-2.8077061 10.395522,10.165952 15.720466,22.205517 27.311842,13.193832 35.247459,21.70577 27.311879,30.217639 15.681024,21.166619 10.356116,33.206184 4.6180568,46.179871 9.1955558,53.265789 -1.2624541,64.280947 9.7527058,53.822905 16.838622,58.400437 29.812311,52.66238 c 12.0396,-5.324943 3.027884,-16.916322 11.539855,-24.851938 8.451329,7.936515 -0.524521,19.572874 11.500415,24.89131 12.976543,5.739367 20.017784,1.118846 31.035354,11.579195 C 73.427621,53.263377 78.04807,46.222101 72.308742,33.245591 66.990302,21.220655 55.393316,30.157136 47.456805,21.70577 55.393316,13.254374 66.990302,22.190853 72.308742,10.165952 78.048104,-2.8105958 73.427586,-9.8518738 83.887935,-20.869442 72.87033,-10.409128 65.829091,-15.029579 52.852581,-9.2902478 40.827645,-3.97181 49.803495,7.6645884 41.352166,15.6011 32.840229,7.6654475 41.851911,-3.9259301 29.812311,-9.2508762 16.838622,-14.988931 9.7527058,-10.411397 -1.2624541,-20.869442 Z"/>
   <path d="M -1.2624541,-20.869442 C 9.1955883,-9.8542808 4.6574305,-2.8077061 10.395522,10.165952 15.720466,22.205517 27.311842,13.193832 35.247459,21.70577 27.311879,30.217639 15.681024,21.166619 10.356116,33.206184 4.6180568,46.179871 9.1955558,53.265789 -1.2624541,64.280947 9.7527058,53.822905 16.838622,58.400437 29.812311,52.66238 c 12.0396,-5.324943 3.027884,-16.916322 11.539855,-24.851938 8.451329,7.936515 -0.524521,19.572874 11.500415,24.89131 12.976543,5.739367 20.017784,1.118846 31.035354,11.579195 C 73.427621,53.263377 78.04807,46.222101 72.308742,33.245591 66.990302,21.220655 55.393316,30.157136 47.456805,21.70577 55.393316,13.254374 66.990302,22.190853 72.308742,10.165952 78.048104,-2.8105958 73.427586,-9.8518738 83.887935,-20.869442 72.87033,-10.409128 65.829091,-15.029579 52.852581,-9.2902478 40.827645,-3.97181 49.803495,7.6645884 41.352166,15.6011 32.840229,7.6654475 41.851911,-3.9259301 29.812311,-9.2508762 16.838622,-14.988931 9.7527058,-10.411397 -1.2624541,-20.869442 Z" style="opacity:0.1;fill:#020000;fill-rule:evenodd;filter:url(#filter884)"/>
   <path d="M -1.2624541,-20.869442 C 9.1955883,-9.8542808 4.6574305,-2.8077061 10.395522,10.165952 15.720466,22.205517 27.311842,13.193832 35.247459,21.70577 27.311879,30.217639 15.681024,21.166619 10.356116,33.206184 4.6180568,46.179871 9.1955558,53.265789 -1.2624541,64.280947 9.7527058,53.822905 16.838622,58.400437 29.812311,52.66238 c 12.0396,-5.324943 3.027884,-16.916322 11.539855,-24.851938 8.451329,7.936515 -0.524521,19.572874 11.500415,24.89131 12.976543,5.739367 20.017784,1.118846 31.035354,11.579195 C 73.427621,53.263377 78.04807,46.222101 72.308742,33.245591 66.990302,21.220655 55.393316,30.157136 47.456805,21.70577 55.393316,13.254374 66.990302,22.190853 72.308742,10.165952 78.048104,-2.8105958 73.427586,-9.8518738 83.887935,-20.869442 72.87033,-10.409128 65.829091,-15.029579 52.852581,-9.2902478 40.827645,-3.97181 49.803495,7.6645884 41.352166,15.6011 32.840229,7.6654475 41.851911,-3.9259301 29.812311,-9.2508762 16.838622,-14.988931 9.7527058,-10.411397 -1.2624541,-20.869442 Z" style="opacity:0.1;fill:#020000;fill-rule:evenodd"/>
   <path style="fill:#3d3846;fill-rule:evenodd" d="M -0.51552091,-20.122508 C 9.7590471,-9.3005963 5.3005061,-2.3776453 10.937929,10.368405 16.169453,22.196749 27.557472,13.343164 35.353867,21.70577 27.557508,30.068308 16.130703,21.176078 10.899214,33.004422 5.2618231,45.750501 9.7590151,52.712104 -0.51552091,63.534014 10.306391,53.259446 17.267992,57.756671 30.014073,52.119282 41.842452,46.887759 32.988836,35.499737 41.351474,27.703342 49.654534,35.50062 40.836155,46.932833 52.650127,52.157963 65.399012,57.796639 72.316722,53.25718 83.141001,63.534014 72.864202,52.709735 77.40359,45.79199 71.764952,33.043138 66.539818,21.229166 55.146288,30.008866 47.349014,21.70577 55.146288,13.402644 66.539818,22.182343 71.764952,10.368405 77.403624,-2.3804843 72.864167,-9.2982313 83.141001,-20.122508 72.316688,-9.8457083 65.398979,-14.385099 52.650127,-8.7464583 40.836155,-3.5213263 49.654534,7.9109247 41.351474,15.708199 32.988869,7.9117687 41.842452,-3.4762513 30.014073,-8.7077773 17.267992,-14.345164 10.306391,-9.8479383 -0.51552091,-20.122508 Z"/>
   <path style="fill:#ffffff;fill-rule:evenodd;opacity:0.3" d="m -0.51552039,-20.122508 c 0.94572579,0.99611 1.76460739,1.95893 2.48004989,2.896555 9.4684285,7.4718586 16.3040625,4.070413 28.0493865,9.2651811 C 41.842294,-2.7292455 32.988794,8.658908 41.351399,16.455339 49.654458,8.6580643 40.83625,-2.774299 52.650224,-7.9994313 64.399447,-13.19595 71.198429,-9.7575254 80.664596,-17.228871 c 0.713856,-0.936818 1.531436,-1.89833 2.476405,-2.893637 -10.824313,10.2768 -17.741926,5.737502 -30.490777,11.3761435 C 40.83625,-3.5212326 49.654458,7.9111307 41.351399,15.708406 32.988794,7.9119748 41.842294,-3.4761787 30.013916,-8.7077051 17.267836,-14.345092 10.306388,-9.8479379 -0.51552039,-20.122508 Z M 34.991523,22.07922 C 27.207407,29.799346 16.050305,21.358168 10.899281,33.004579 5.2618887,45.750658 9.7590132,52.712106 -0.51552039,63.534014 0.33315637,62.72826 1.1557651,62.022655 1.9616127,61.386581 9.0157959,52.130379 5.7802641,45.325552 10.899281,33.751512 16.130768,21.923167 27.557693,30.815224 35.354051,22.452686 35.234131,22.324061 35.113106,22.199838 34.991523,22.07922 Z m 12.721939,0 c -0.122325,0.120428 -0.243347,0.245001 -0.363984,0.373466 7.797273,8.303097 19.190245,-0.476487 24.415379,11.337483 5.120158,11.57658 1.850204,18.345771 8.899739,27.597141 0.805383,0.635666 1.627681,1.340905 2.476405,2.146704 C 72.864202,52.709734 77.403496,45.792091 71.764857,33.043236 66.620567,21.412051 55.497355,29.742299 47.713462,22.07922 Z"/>
   <path style="fill-rule:evenodd;opacity:0.3" d="M -0.51617696,-20.12227 C 9.7583939,-9.3003578 5.2998673,-2.3775426 10.937286,10.368508 c 5.151143,11.646594 16.271306,3.242045 24.054313,10.964016 0.121597,-0.120596 0.241883,-0.244841 0.361796,-0.373466 C 27.557006,12.596452 16.168818,21.44992 10.937286,9.6215743 5.8192884,-1.9500776 9.0212343,-8.7230165 1.9667935,-17.97046 1.159071,-18.607699 0.33457253,-19.314549 -0.51617696,-20.12227 Z m 83.65652296,0 c -0.849088,0.806138 -1.671424,1.511566 -2.477133,2.147433 -7.048735,9.2509492 -3.778246,16.0201427 -8.898279,27.5964113 -5.225142,11.8139367 -16.618843,3.0343577 -24.416113,11.3374837 0.12088,0.128719 0.242145,0.252818 0.364717,0.373466 7.783873,-7.662498 18.907177,0.666959 24.051396,-10.964016 5.63867,-12.7488897 1.09857,-19.666501 11.375412,-30.490778 z M 41.351474,26.956409 C 32.988832,34.752801 41.84237,46.140993 30.013991,51.372517 18.267745,56.567696 11.431282,53.165004 1.9616882,60.639158 1.2472092,61.576727 0.42885791,62.53887 -0.51617696,63.534252 10.305743,53.259685 17.267911,57.75684 30.013991,52.119451 41.84237,46.887926 32.988832,35.499734 41.351474,27.703342 c 8.303059,7.797277 -0.515877,19.229636 11.298094,24.454766 12.748891,5.638678 19.666498,1.09931 30.490778,11.376144 C 82.195371,62.538938 81.3778,61.576712 80.663941,60.639886 71.198004,53.168929 64.398663,56.607657 52.649568,51.411175 40.835597,46.186044 49.654533,34.753686 41.351474,26.956409 Z"/>
  </g>
 </g>
</svg>
